!!!COM:	la Rue, Pierre de
!!!CDT:	~1452///-1518/11/20
!!!OPR:	Missa De Sancto Antonio
!!!ONM:	5
!!!OTL:	Agnus Dei
!!!AGN:	Mass; Agnus Dei
!!!SCT:	Rue1012e
!!!SCA:	Rue1012e
!!!voices:	4
!!!voices-OPR:	4
**kern	**kern	**kern	**kern
*staff4	*staff3	*staff2	*staff1
*Ivox	*Ivox	*Ivox	*Ivox
*I"Bassus	*I"Tenor	*I"Contra	*I"Discantus
*I'B	*I'T	*I'C	*I'D
*>[A,B]	*>[A,B]	*>[A,B]	*>[A,B]
*>A	*>A	*>A	*>A
*clefF4	*clefGv2	*clefGv2	*clefG2
*k[]	*k[]	*k[]	*k[]
*M3/1	*M3/1	*M3/1	*M3/1
*met(O)	*met(O)	*met(O)	*met(O)
!!section: Agnus Dei I
!!!OMD: Agnus Dei I
=1-	=1-	=1-	=1-
0E	0.r	0B	0.r
1F	.	1d	.
=2	=2	=2	=2
0E	0.r	2e\	0.r
.	.	1g	.
.	.	4f\	.
.	.	4e\	.
1G	.	1d	.
=3	=3	=3	=3
2A\	0.r	1c	0e
1c	.	.	.
.	.	1r	.
4B\	.	.	.
4A\	.	.	.
1B	.	1d	1g
=4	=4	=4	=4
1A	0.c	2e\	1a
.	.	1a	.
2F\	.	.	1.cc
2G\	.	1g	.
1A	.	.	.
.	.	2f#i\	4b\
.	.	.	4a/
=5	=5	=5	=5
0G	0d	0g	0b
1c	[1e	2.e\	2.g/
.	.	8f\L	8a/L
.	.	8g\J	8b/J
=6	=6	=6	=6
2.A\	1e]	1a	1cc
8B\L	.	.	.
8c\J	.	.	.
1d	1f	1d	2.a/
.	.	.	8b\L
.	.	.	8cc\J
1G	1d	2r	1dd
.	.	2B\	.
=7	=7	=7	=7
2r	1e	2c\	2r
2E\	.	2e\	2g/
2F\	2r	2d\	2a/
2A\	2c\	2c\	2cc\
2G\	2d\	2r	2b\
2F\	2f\	[2c\	[2a/
=8	=8	=8	=8
2A\	2e\	4c\]	4a/]
.	.	4B\	4g/
1D	2.d\	4A/	4f/
.	.	4G/	4e/
.	.	2A/	2f/
.	4c\	.	.
2G\	4B\	2.e\	2g/
.	4A/	.	.
2A\	2c\	.	2e/
.	.	4c\	.
2D\	2d\	2f\	[2a/
=9	=9	=9	=9
1E	1B	1e	2a/]
.	.	.	2g#i/
0A	2r	2r	0a
.	2.A/	2.c\	.
.	4B\	4d\	.
.	2c\	2e\	.
=10	=10	=10	=10
2r	2d\	2f\	0.r
2.D\	1f	2.d\	.
4E\	.	4c\	.
2F\	2f\	2A/	.
2G\	2e\	2B\	.
[2B\	[2d\	2G/	.
=11	=11	=11	=11
2B\]	4d\]	1d	2r
.	4e\	.	.
4A\	4f\	.	2.a/
4G\	4g\	.	.
2.A\	2f\	1r	.
.	.	.	4b\
.	1e	.	2cc\
4G\	.	.	.
2F\	.	1r	2dd\
2D\	[2d\	.	[2ff\
=12	=12	=12	=12
1E	2d\]	1r	4ff\]
.	.	.	4dd\
.	2c\	.	2ee\
0D	0d	2r	2a/
.	.	1A	2.dd\
.	.	.	4cc\
.	.	4B\	4b\
.	.	4c\	4a/
=13	=13	=13	=13
0.r	0.r	2d\	2b\
.	.	1f	2a/
.	.	.	1cc
.	.	2.e\	.
.	.	.	2b\
.	.	4c\	.
.	.	2d\	[2a/
=14	=14	=14	=14
0.r	1r	4B\	4a/]
.	.	4c\	4g/
.	.	4d\	2g/
.	.	4e\	.
.	2.A/	2f\	1a
.	.	1e	.
.	4B\	.	.
.	2c\	.	1r
.	2d\	[2a\	.
=15	=15	=15	=15
1r	1B	4a\]	1r
.	.	4g\	.
.	.	2g\	.
0A	0A	2a\	0a
.	.	4g\	.
.	.	4f\	.
.	.	1e	.
=16	=16	=16	=16
0F	1r	1r	0cc
.	[0A	0a	.
[1D	.	.	[1dd
=17	=17	=17	=17
1D]	1A]	1f	1dd]
1C	0c	1.g	1.ee
1E	.	.	.
.	.	2e\	2a/
=18	=18	=18	=18
0D	0d	1f	0a
.	.	1f	.
[1C	[1e	[1g	2r
.	.	.	[2ee\
=19	=19	=19	=19
1C]	1e]	2g\]	2ee\]
.	.	2e\	2cc\
2r	2r	2d\	2dd\
2G\	1e	1g	2b\
1A	.	.	1cc
.	2c\	2f\	.
=20	=20	=20	=20
2G\	2d\	1g	1b
1G	2B\	.	.
.	1c	1r	2r
2F\	.	.	2a/
2G\	1B	2r	2b\
2B\	.	[2g\	[2dd\
=21	=21	=21	=21
1A	2r	2g\]	4dd\]
.	.	.	4b\
.	2A/	2f\	2cc\
1G	2B\	1.g	1b
.	2.d\	.	.
2G\	.	.	2b\
.	4B\	.	.
2A\	2c\	2f\	2a/
=22	=22	=22	=22
2G\	2d\	2g\	2b\
2A\	2c\	2f\	2a/
2G\	1d	2g\	2b\
2B-i\	.	4f\	2.dd\
.	.	4g\	.
1A	1e	1a	.
.	.	.	4cc#i\
.	.	.	2cc#i\
=23	=23	=23	=23
1B-	1.d	1f	0dd
1G	.	1g	.
.	2B\	.	.
2r	2.c\	2r	1g
2C/	.	2e\	.
.	4B\	.	.
=24	=24	=24	=24
2D\	2A/	2f\	2r
2E\	2G/	2g\	2g/
2F\	2r	2c\	2a/
2G\	2G/	1g	2b\
2C/	2A/	.	2cc\
2G\	2B\	4f\	[2dd\
.	.	4e\	.
=25	=25	=25	=25
1A	1c	1f	2dd\]
.	.	.	1cc
1G	1d	1g	.
.	.	.	2b\
2.A\	2.c\	1e	1cc
4B\	4d\	.	.
=26	=26	=26	=26
2c\	2e\	1r	2cc\
2.G\	1d	.	2.b\
.	.	1.g	.
4A\	.	.	4cc\
2B\	2d\	.	2dd\
2c\	2e\	.	2cc\
[2G\	[2d\	2g\	[2b\
=27	=27	=27	=27
4G\]	2d\]	1g	4b\]
4A\	.	.	4cc\
4B\	2B\	.	2dd\
4c\	.	.	.
2A\	2c\	2f\	2cc\
1G	1d	2.g\	2.b\
.	.	4f\	4cc\
2G\	2B\	4d\	4dd\
.	.	4e\	4ee\
=28	=28	=28	=28
2A\	2c\	2f\	2cc\
2G\	2d\	2.g\	1b
2E\	2e\	.	.
.	.	4f\	.
2F\	2A/	2d\	1a
1E	1B	1e	.
.	.	.	2g#i/
=29	=29	=29	=29
0.AAl	0.Al	0.el	0.al
!!LO:LB:i:g=z
=30||	=30||	=30||	=30||
*>B	*>B	*>B	*>B
*clefF4	*clefGv2	*clefGv2	*clefG2
*k[]	*k[]	*k[]	*k[]
*M2/1	*M2/1	*M2/1	*M2/1
*met(C|)	*met(C|)	*met(C|)	*met(C|)
!!section: Agnus Dei II
!!!OMD: Agnus Dei II
2.E\	[0e	1B	0r
4F\	.	.	.
2G\	.	2B\	.
2A\	.	[2c\	.
=31	=31	=31	=31
2.E\	0e_	4c\]	1b
.	.	4B\	.
.	.	1B	.
4F\	.	.	.
2G\	.	.	2b\
[2A\	.	2A/	[2cc\
=32	=32	=32	=32
2A\]	0e_	1B	4cc\]
.	.	.	4b\
2G\	.	.	1b
1A	.	1c	.
.	.	.	2a/
=33	=33	=33	=33
1E	0e]	2B\	1b
.	.	2G/	.
1r	.	1A	1cc
=34	=34	=34	=34
2r	[0d	1B	2b\
1G	.	.	2g/
.	.	2r	1a
2F\	.	[2A/	.
=35	=35	=35	=35
2.G\	0d]	2A/]	1b
.	.	2G/	.
4A\	.	.	.
1F	.	1A	2r
.	.	.	[2a/
=36	=36	=36	=36
1E	[0e	1B	2a/]
.	.	.	2g/
2AA/	.	1A	2a/
[2A\	.	.	[2cc\
=37	=37	=37	=37
4A\]	0e_	0c	4cc\]
4G\	.	.	4b\
2.A\	.	.	1cc
4B\	.	.	.
[2c\	.	.	4b\
.	.	.	4a/
=38	=38	=38	=38
2c\]	0e_	1r	2g/
4B\	.	.	2a/
4A\	.	.	.
2G\	.	2r	2b\
[2A\	.	2c\	[2cc\
=39	=39	=39	=39
2A\]	0e]	2A/	2cc\]
2G\	.	2B\	2b\
2A\	.	2c\	2a/
2E\	.	4B\	[2b\
.	.	4c\	.
=40	=40	=40	=40
1F	0r	4d\	2b\]
.	.	4c\	.
.	.	4B\	1a
.	.	4A/	.
1E	.	1B	.
.	.	.	2g#i/
=41	=41	=41	=41
1r	[0c	1A	0a
[1A	.	2r	.
.	.	[2e\	.
=42	=42	=42	=42
1A]	0c]	2e\]	1r
.	.	4d\	.
.	.	4c\	.
1A	.	2f\	1a
.	.	[2e\	.
=43	=43	=43	=43
0A	1c	2e\]	1cc
.	.	4d\	.
.	.	4c\	.
.	1c	2e\	1cc
.	.	2f\	.
=44	=44	=44	=44
1.G	1.d	0g	1.b
4F\	2c\	.	4a/
4E\	.	.	4g/
=45	=45	=45	=45
2D\	1d	0r	2b\
2F\	.	.	1a
1E	1e	.	.
.	.	.	2g/
=46	=46	=46	=46
0D	1.f	2r	1a
.	.	2.d\	.
.	.	.	2r
.	.	4e\	.
.	4e\	[2f\	2a/
.	4d\	.	.
=47	=47	=47	=47
2.F\	2c\	4f\]	2.a/
.	.	4g\	.
.	1f	1a	.
4G\	.	.	4b\
2A\	.	.	2cc\
2B-i\	2d\	2g\	[2dd\
=48	=48	=48	=48
1A	1e	[0a	2dd\]
.	.	.	2cc\
1D	1d	.	2dd\
.	.	.	[2ff\
=49	=49	=49	=49
[0A	1r	0a]	2ff\]
.	.	.	4ee\
.	.	.	4dd\
.	[1e	.	1ee
=50	=50	=50	=50
0A]	1e]	1r	1r
.	1f	2.A/	[1a
.	.	4B\	.
=51	=51	=51	=51
1A	1e	2c\	1a]
.	.	2d\	.
1A	1c	2e\	1cc
.	.	2f\	.
=52	=52	=52	=52
1G	1d	0g	1b
1E	1e	.	1g
=53	=53	=53	=53
1F	1c	1f	1a
2D\	2d\	2f\	2a/
[2E\	[2B\	[2e\	[2g/
=54	=54	=54	=54
2E\]	2B\]	2e\]	2g/]
2C/	1e	2e\	4f/
.	.	.	4e/
1D	.	1a	1f
.	2d\	.	.
=55	=55	=55	=55
2r	1e	0r	1e
1A	.	.	.
.	2f\	.	2r
2G\	2g\	.	[2ee\
=56	=56	=56	=56
2A\	2e\	[0a	2ee\]
1D	2d\	.	1ff
.	1e	.	.
2C/	.	.	[2ee\
=57	=57	=57	=57
1D	1f	1a]	4ee\]
.	.	.	4dd\
.	.	.	2dd\
1r	1e	1g	2ee\
.	.	.	4dd\
.	.	.	4cc\
=58	=58	=58	=58
2.G\	2e\	1.g	2.b\
.	1d	.	.
4F\	.	.	4a/
2G\	.	.	4b\
.	.	.	4a/
2B-i\	2d\	4f\	[2dd\
.	.	4g\	.
=59	=59	=59	=59
1A	1e	1a	2dd\]
.	.	.	2cc\
2B-i\	1d	2f\	2dd\
2G\	.	2g\	2b\
=60	=60	=60	=60
2A\	2.c\	2e\	2cc\
4G\	.	2f\	4b\
4F\	4d\	.	4a/
[1E	1e	2g\	1g
.	.	[2c\	.
=61	=61	=61	=61
1E]	2e\	2c\]	2r
.	2.c\	4B\	2.e/
.	.	4A/	.
1E	.	[1G	.
.	4d\	.	4f/
.	4e\	.	4g/
.	4f\	.	4a/
=62	=62	=62	=62
[0E	2e\	1G]	2g/
.	2c\	.	2e/
.	2r	1G	2r
.	[2e\	.	[2g/
=63	=63	=63	=63
0E]	4e\]	0G	4g/]
.	4f\	.	4a/
.	4g\	.	4b\
.	4a\	.	4cc\
.	2g\	.	2b\
.	4f\	.	2g/
.	4e\	.	.
=64	=64	=64	=64
0G	0d	2r	2r
.	.	2.g\	2.b\
.	.	4a\	4cc\
.	.	4b\	4dd\
.	.	4cc\	4ee\
=65	=65	=65	=65
1G	1d	2b\	2dd\
.	.	1g	2b\
1A	1c	.	2.cc\
.	.	2f\	.
.	.	.	4a/
=66	=66	=66	=66
1G	2d\	1g	2b\
.	2B\	.	2dd\
2A\	2c\	2e\	2cc\
2G\	[2d\	[2g\	[2b\
=67	=67	=67	=67
1A	4d\]	4g\]	4b\]
.	4c\	4f\	4a/
.	4B\	4e\	1a
.	4A/	4d\	.
1E	1B	1e	.
.	.	.	2g#i/
=68	=68	=68	=68
1r	[0Al	[0el	[0al
1AA	.	.	.
=69	=69	=69	=69
0AAl	0A]	0e]	0a]
==	==	==	==
*-	*-	*-	*-
!!!RDF**kern: l=long note in original notation
!!!RDF**kern: i=editorial accidental
!!!ENC:	Chris Gage 01-11-2013
!!!END:	2013/07/16/
!!!EED:	Jesse Rodin
!!!EEV:	2013/07/19/
!!!ONB:	Translated from MusicXML and edited on 2013/07/19/ by Craig Sapp
!!muse2ps: T^@{OPR}^u^@{ONM}{. }@{OTL}^C^@{COM}^i2I150v85,85,85,150Q16c80
